X:310
T:Uncle Reuben
M:2/4
L:1/8
K:G
P:A
d|"G"gg ed|gg G2|gg ed|"D7"A4|"G"gg ed|"C"gg ed|"A7"B>B BA|"G"G3:|
P:B
d|"G"ed BA|B>B BA|B>B BA|B>B "D7"Bd|"G"ed BA|B>B BA|"D7"B>B BA|"G"G3:|

